X:1
T:Davenport, 88.84
T:Davenport, 88.84
T:Mrs. Emma L. Morton, 1879
T:Public Domain Courtesy of the Cyber Hymnal™
C:Mrs. Emma L. Morton, 1879
Z:Public Domain
Z:Courtesy of the Cyber Hymnal™
%%score ( 1 2 ) ( 3 4 )
L:1/8
Q:1/4=110
M:3/4
K:Eb
V:1 treble 
V:2 treble 
V:3 bass 
V:4 bass 
V:1
 [EG]2 [FA]2 [^F=A]2 | [GB]6 | [GB]2 [F=B]2 [Ec]2 | d4 ([Ee][Gc]) | [FB]4 [F=A]2 | [FB]4 [FB]2 | %6
 [FA]4 [FA]2 | [EG]4 [EG]2 | ([DF][Ac]) ([GB]2 [FA]2) | [EG]4 z2 | [GB]2 [GB]2 [FA]2 | [EG]4 z2 | %12
 [CF]2 [B,E]2 [B,D]2 | [B,E]6 |] %14
V:2
 x6 | x6 | x6 | (D2 F2) x2 | x6 | x6 | x6 | x6 | x6 | x6 | x6 | x6 | x6 | x6 |] %14
V:3
 [E,E]2 [E,D]2 [E,C]2 | [E,B,]6 | [E,E]2 [D,G,]2 [C,G,]2 | [B,,B,]4 ([C,G,][E,E]) | [F,D]4 [F,C]2 | %5
 [B,,D]4 [B,,B,]2 | B,4 B,2 | [E,B,]4 [E,B,]2 | [B,,B,]4 [B,,B,]2 | [E,B,]4 z2 | %10
 [E,E]2 [E,B,]2 B,2 | [C,E]4 z2 | [A,,A,]2 [B,,G,]2 [B,,F,]2 | [E,G,]6 |] %14
V:4
 x6 | x6 | x6 | x6 | x6 | x6 | (D,2 B,,2) (C,D,) | x6 | x6 | x6 | x4 (B,,=B,,) | x6 | x6 | x6 |] %14

